assets/svgs/form.svg

<svg viewBox="0 0 1024 1024" xmlns="http://www.w3.org/2000/svg"><path d="m773.485714 970.474057h-522.971428c-46.782171 0-84.845714-35.796114-84.845715-79.813486v-618.378971c0-44.002743 38.063543-79.813486 84.845715-79.813486h26.8288v52.662857h-26.8288c-17.744457 0-32.182857 12.1856-32.182857 27.150629v618.364343c0 14.965029 14.4384 27.150629 32.182857 27.150628h522.971428c17.744457 0 32.168229-12.1856 32.168229-27.150628v-618.364343c0-14.965029-14.423771-27.150629-32.168229-27.150629h-32.914285v-52.662857h32.914285c46.767543 0 84.831086 35.796114 84.831086 79.813486v618.364343c0 44.032-38.063543 79.828114-84.831086 79.828114z"/><path d="m303.235657 406.396343h417.514057v52.662857h-417.514057zm30.866286-211.675429h355.781486v52.662857h-355.781486zm-30.866286 362.0864h417.514057v52.662857h-417.514057zm0 150.4256h417.514057v52.662857h-417.514057z"/><path d="m655.023543 196.578743h-52.662857a90.477714 90.477714 0 0 0 -90.375315-90.389943 90.492343 90.492343 0 0 0 -90.389942 90.389943h-52.662858c0-78.877257 64.175543-143.0528 143.0528-143.0528s143.038171 64.175543 143.038172 143.0528z"/></svg>

<svg xmlns="http://www.w3.org/2000/svg" viewBox="0 0 1024 1024" version="1.1"><path d="M773.485714 970.474057h-522.971428c-46.782171 0-84.845714-35.796114-84.845715-79.813486V272.2816c0-44.002743 38.063543-79.813486 84.845715-79.813486h26.8288v52.662857h-26.8288c-17.744457 0-32.182857 12.1856-32.182857 27.150629v618.364343c0 14.965029 14.4384 27.150629 32.182857 27.150628h522.971428c17.744457 0 32.168229-12.1856 32.168229-27.150628V272.2816c0-14.965029-14.423771-27.150629-32.168229-27.150629h-32.914285v-52.662857h32.914285c46.767543 0 84.831086 35.796114 84.831086 79.813486v618.364343c0 44.032-38.063543 79.828114-84.831086 79.828114z" p-id="14542"></path><path d="M303.235657 406.396343H720.749714v52.662857H303.235657zM334.101943 194.720914H689.883429v52.662857H334.101943zM303.235657 556.807314H720.749714v52.662857H303.235657zM303.235657 707.232914H720.749714v52.662857H303.235657z" p-id="14543"></path><path d="M655.023543 196.578743h-52.662857a90.477714 90.477714 0 0 0-90.375315-90.389943 90.492343 90.492343 0 0 0-90.389942 90.389943h-52.662858c0-78.877257 64.175543-143.0528 143.0528-143.0528s143.038171 64.175543 143.038172 143.0528z" p-id="14544"></path></svg>
